src/pos-icons/selection-off.svg

<svg height="24" viewBox="0 0 24 24" width="24" xmlns="http://www.w3.org/2000/svg"><path d="m.5 3.77 1.28-1.27 19.72 19.72-1.27 1.28-1.5-1.5h-1.73v-1.73l-13.27-13.27h-1.73v-1.73zm3.5-1.77h3v2h-1.18l-1.99-2zm18 2v3h-2v-3h-3v-2h3a2 2 0 0 1 2 2m-2 13h2v3 .17l-2-1.99zm-18 3v-3h2v3h3v2h-3a2 2 0 0 1 -2-2m8-18h4v2h-4zm0 18h4v2h-4zm10-10h2v4h-2zm-18 0h2v4h-2z"/></svg>

<?xml version="1.0" encoding="UTF-8"?><!DOCTYPE svg PUBLIC "-//W3C//DTD SVG 1.1//EN" "http://www.w3.org/Graphics/SVG/1.1/DTD/svg11.dtd"><svg xmlns="http://www.w3.org/2000/svg" xmlns:xlink="http://www.w3.org/1999/xlink" version="1.1" id="mdi-selection-off" width="24" height="24" viewBox="0 0 24 24"><path d="M0.5,3.77L1.78,2.5L21.5,22.22L20.23,23.5L18.73,22H17V20.27L3.73,7H2V5.27L0.5,3.77M4,2H7V4H5.82L3.83,2H4M22,4V7H20V4H17V2H20A2,2 0 0,1 22,4M20,17H22V20L22,20.17L20,18.18V17M2,20V17H4V20H7V22H4A2,2 0 0,1 2,20M10,2H14V4H10V2M10,20H14V22H10V20M20,10H22V14H20V10M2,10H4V14H2V10Z" /></svg>
